;FLAVOR:UltiGCode
;TIME:12305
;MATERIAL:12655
;MATERIAL2:0
;NOZZLE_DIAMETER:0.4
;MINX:66.885
;MINY:86.78
;MINZ:0.27
;MAXX:157.475
;MAXY:136.22
;MAXZ:22.17
;TARGET_MACHINE.NAME:Ultimaker 2+
;Generated with Cura_SteamEngine 5.6.0
M82 ;absolute extrusion mode
G0 F3000 Y50 ;avoid prime blob
G92 E0
G92 E0
G10
;LAYER_COUNT:220
;LAYER:0
M107
G0 F7200 X70.543 Y89.283 Z0.27
;TYPE:SKIRT
G11
G1 F1800 X73.615 Y88.28 E0.34901
G1 X83.968 Y88.28 E1.46714
G1 X86.638 Y89.154 E1.77055
G1 X87.534 Y89.999 E1.90357
G1 X89.513 Y89.36 E2.12816
G1 X94.322 Y89.36 E2.64753
G1 X95.804 Y89.863 E2.81656
G1 X97.418 Y88.587 E3.03876
G1 X100.023 Y87.975 E3.32776
G1 X128.356 Y87.984 E6.38773
G1 X129.196 Y87.445 E6.49552
G1 X131.339 Y86.78 E6.73785
G1 X136.406 Y86.78 E7.28509
G1 X138.573 Y87.322 E7.52633
G1 X140.079 Y88.28 E7.7191
G1 X144.18 Y88.28 E8.16201
G1 X145.294 Y87.959 E8.28721
G1 X147.511 Y87.903 E8.52673
G1 X148.057 Y88.08 E8.58872
G1 X148.683 Y88.057 E8.65637
G1 X150.974 Y88.532 E8.90906
G1 X153.186 Y89.763 E9.18246
G1 X154.658 Y91.089 E9.39642
G1 X156.15 Y93.477 E9.70053
G1 X156.737 Y95.893 E9.96905
G1 X156.736 Y100.109 E10.42438
G1 X156.026 Y102.514 E10.6952
G1 X155.526 Y103.36 E10.80133
G1 X156.261 Y104.066 E10.9114
G1 X157.421 Y107.464 E11.29918
G1 X157.455 Y110.221 E11.59696
G1 X157.474 Y110.964 E11.67723
G1 X157.475 Y112.309 E11.82249
G1 X157.448 Y113.038 E11.90127
G1 X157.439 Y115.478 E12.16479
G1 X156.738 Y117.82 E12.42882
G1 X155.801 Y119.454 E12.63224
G1 X155.607 Y119.672 E12.66376
G1 X156.075 Y120.329 E12.75088
G1 X156.733 Y123.144 E13.06309
G1 X156.735 Y127.309 E13.51291
G1 X155.877 Y130.179 E13.83643
G1 X153.9 Y132.759 E14.18747
G1 X151.477 Y134.246 E14.4945
G1 X148.838 Y134.983 E14.79042
G1 X148.222 Y134.97 E14.85696
G1 X147.214 Y135.431 E14.97667
G1 X146.559 Y135.508 E15.0479
G1 X144.185 Y134.72 E15.31805
G1 X140.005 Y134.703 E15.76949
G1 X138.643 Y135.563 E15.94346
G1 X136.537 Y136.22 E16.18171
G1 X131.099 Y136.22 E16.76902
G1 X128.685 Y135.419 E17.04371
G1 X128.21 Y135.032 E17.10988
G1 X99.758 Y135.02 E20.1827
G1 X97.209 Y134.369 E20.46682
G1 X95.714 Y133.087 E20.67952
G1 X94.009 Y133.64 E20.8731
G1 X89.602 Y133.64 E21.34906
G1 X87.8 Y133.248 E21.54823
G1 X87.419 Y133.054 E21.5944
G1 X86.106 Y134.099 E21.77564
G1 X83.499 Y134.72 E22.06507
G1 X73.706 Y134.72 E23.12271
G1 X71.778 Y134.3 E23.33582
G1 X69.958 Y133.19 E23.56605
G1 X67.876 Y131.044 E23.88897
G1 X66.885 Y127.987 E24.23604
G1 X66.886 Y94.71 E27.82996
G1 X67.776 Y92.092 E28.12859
G1 X67.976 Y91.776 E28.16898
G1 X70.543 Y89.283 E28.55544
G0 F7200 X70.756 Y89.634
G1 F1800 X73.678 Y88.68 E28.88741
G1 X83.904 Y88.68 E29.99182
G1 X86.429 Y89.507 E30.27878
G1 X87.433 Y90.453 E30.42776
G1 X89.577 Y89.76 E30.67111
G1 X94.255 Y89.76 E31.17633
G1 X95.881 Y90.312 E31.36178
G1 X97.597 Y88.955 E31.59805
G1 X100.067 Y88.375 E31.87207
G1 X128.474 Y88.384 E34.94003
G1 X129.367 Y87.811 E35.05462
G1 X131.4 Y87.18 E35.28451
G1 X136.357 Y87.18 E35.81987
G1 X138.411 Y87.694 E36.04854
G1 X139.961 Y88.68 E36.24694
G1 X144.235 Y88.68 E36.70853
G1 X145.354 Y88.358 E36.83429
G1 X147.452 Y88.305 E37.06095
G1 X148.001 Y88.483 E37.12328
G1 X148.649 Y88.459 E37.19331
G1 X150.832 Y88.911 E37.43407
G1 X152.954 Y90.092 E37.69635
G1 X154.349 Y91.349 E37.89915
G1 X155.776 Y93.633 E38.19001
G1 X156.337 Y95.942 E38.44664
G1 X156.336 Y100.05 E38.8903
G1 X155.655 Y102.356 E39.14998
G1 X155.021 Y103.429 E39.28459
G1 X155.913 Y104.286 E39.41818
G1 X157.022 Y107.534 E39.78885
G1 X157.055 Y110.231 E40.08014
G1 X157.074 Y110.964 E40.15934
G1 X157.075 Y112.294 E40.30298
G1 X157.048 Y113.023 E40.38176
G1 X157.039 Y115.419 E40.64053
G1 X156.368 Y117.661 E40.89328
G1 X155.454 Y119.255 E41.09172
G1 X155.088 Y119.632 E41.14847
G1 X155.703 Y120.496 E41.26301
G1 X156.333 Y123.192 E41.56202
G1 X156.335 Y127.251 E42.00039
G1 X155.515 Y129.993 E42.30949
G1 X153.627 Y132.457 E42.64474
G1 X151.315 Y133.876 E42.93771
G1 X148.73 Y134.598 E43.22758
G1 X148.145 Y134.566 E43.29085
G1 X147.104 Y135.041 E43.41443
G1 X146.602 Y135.1 E43.46902
G1 X144.252 Y134.32 E43.73643
G1 X139.891 Y134.303 E44.20743
G1 X138.476 Y135.196 E44.38813
G1 X136.476 Y135.82 E44.6144
G1 X131.165 Y135.82 E45.18799
G1 X128.88 Y135.062 E45.44799
G1 X128.353 Y134.632 E45.52145
G1 X99.81 Y134.62 E48.6041
G1 X97.398 Y134.004 E48.87295
G1 X95.804 Y132.637 E49.09974
G1 X93.947 Y133.24 E49.31061
G1 X89.646 Y133.24 E49.77511
G1 X87.885 Y132.857 E49.96975
G1 X87.38 Y132.574 E50.03227
G1 X85.927 Y133.731 E50.23287
G1 X83.452 Y134.32 E50.50763
G1 X73.75 Y134.32 E51.55545
G1 X71.927 Y133.923 E51.75695
G1 X70.212 Y132.877 E51.9739
G1 X68.228 Y130.832 E52.28162
G1 X67.285 Y127.923 E52.61188
G1 X67.286 Y94.777 E56.19165
G1 X68.155 Y92.221 E56.48322
G1 X68.255 Y92.063 E56.50341
G1 X70.756 Y89.634 E56.87995
G0 F7200 X70.969 Y89.985
G1 F1800 X73.741 Y89.08 E57.19487
G1 X83.841 Y89.08 E58.28567
G1 X86.22 Y89.859 E58.55603
G1 X87.332 Y90.907 E58.72105
G1 X89.641 Y90.16 E58.98315
G1 X94.188 Y90.16 E59.47423
G1 X95.958 Y90.761 E59.67611
G1 X97.776 Y89.324 E59.92638
G1 X100.112 Y88.775 E60.18554
G1 X128.592 Y88.784 E63.26138
G1 X129.538 Y88.177 E63.38277
G1 X131.461 Y87.58 E63.60024
G1 X136.308 Y87.58 E64.12371
G1 X138.249 Y88.066 E64.33981
G1 X139.619 Y88.937 E64.51514
G1 X139.786 Y89.08 E64.53889
G1 X144.289 Y89.08 E65.02521
G1 X145.413 Y88.757 E65.15152
G1 X147.396 Y88.707 E65.36575
G1 X147.948 Y88.886 E65.42842
G1 X148.615 Y88.861 E65.50051
G1 X150.691 Y89.291 E65.72947
G1 X152.72 Y90.42 E65.98024
G1 X154.04 Y91.609 E66.17211
G1 X155.402 Y93.789 E66.44973
G1 X155.937 Y95.991 E66.69446
G1 X155.936 Y99.991 E67.12646
G1 X155.285 Y102.196 E67.37476
G1 X154.571 Y103.404 E67.52631
G1 X154.57 Y103.55 E67.54208
G1 X155.565 Y104.506 E67.6911
G1 X156.623 Y107.604 E68.04466
G1 X156.655 Y110.242 E68.32958
G1 X156.674 Y110.964 E68.40759
G1 X156.675 Y112.279 E68.54961
G1 X156.648 Y113.008 E68.62839
G1 X156.639 Y115.36 E68.88241
G1 X155.998 Y117.502 E69.12388
G1 X155.107 Y119.056 E69.31735
G1 X154.562 Y119.583 E69.39922
G1 X155.332 Y120.665 E69.54265
G1 X155.933 Y123.236 E69.8278
G1 X155.935 Y127.193 E70.25516
G1 X155.153 Y129.809 E70.55004
G1 X153.356 Y132.154 E70.86911
G1 X151.152 Y133.507 E71.14842
G1 X148.686 Y134.195 E71.42491
G1 X148.067 Y134.162 E71.49186
G1 X146.938 Y134.677 E71.62588
G1 X146.728 Y134.72 E71.64903
G1 X144.318 Y133.92 E71.92328
G1 X139.777 Y133.903 E72.41371
G1 X138.309 Y134.829 E72.60116
G1 X136.415 Y135.42 E72.81544
G1 X131.231 Y135.42 E73.37531
G1 X129.074 Y134.704 E73.62076
G1 X128.494 Y134.232 E73.70152
G1 X99.862 Y134.22 E76.79378
G1 X97.587 Y133.639 E77.04737
G1 X95.895 Y132.188 E77.28809
G1 X93.886 Y132.84 E77.51621
G1 X89.69 Y132.84 E77.96938
G1 X87.97 Y132.466 E78.15948
G1 X87.349 Y132.087 E78.23805
G1 X85.748 Y133.363 E78.45915
G1 X83.405 Y133.92 E78.71925
G1 X73.794 Y133.92 E79.75724
G1 X72.076 Y133.546 E79.94713
G1 X70.466 Y132.564 E80.1508
G1 X68.58 Y130.62 E80.44332
G1 X67.685 Y127.859 E80.75678
G1 X67.686 Y94.844 E84.3224
G1 X68.534 Y92.35 E84.6069
G1 X70.969 Y89.985 E84.9735
G0 F7200 X71.182 Y90.336
G1 F1800 X73.804 Y89.48 E85.27139
G1 X83.778 Y89.48 E86.34858
G1 X86.011 Y90.211 E86.60234
G1 X87.231 Y91.361 E86.78341
G1 X89.705 Y90.56 E87.06426
G1 X94.121 Y90.56 E87.54118
G1 X96.035 Y91.21 E87.75949
G1 X97.955 Y89.692 E88.02383
G1 X100.156 Y89.175 E88.26801
G1 X128.71 Y89.184 E91.35184
G1 X129.709 Y88.543 E91.48003
G1 X131.522 Y87.98 E91.68506
G1 X136.259 Y87.98 E92.19666
G1 X138.09 Y88.438 E92.4005
G1 X139.404 Y89.274 E92.5687
G1 X139.632 Y89.48 E92.60188
G1 X144.343 Y89.48 E93.11067
G1 X145.472 Y89.156 E93.23752
G1 X147.34 Y89.109 E93.43933
G1 X147.895 Y89.289 E93.50234
G1 X148.581 Y89.263 E93.57649
G1 X150.549 Y89.67 E93.79353
G1 X152.488 Y90.749 E94.03318
G1 X153.731 Y91.869 E94.21388
G1 X155.028 Y93.945 E94.47825
G1 X155.537 Y96.04 E94.71109
G1 X155.536 Y99.932 E95.13143
G1 X154.915 Y102.036 E95.36835
G1 X154.172 Y103.293 E95.52605
G1 X154.168 Y103.719 E95.57206
G1 X155.218 Y104.727 E95.72926
G1 X156.224 Y107.674 E96.06556
G1 X156.255 Y110.253 E96.34412
G1 X156.274 Y110.964 E96.42093
G1 X156.275 Y112.264 E96.56133
G1 X156.248 Y112.993 E96.64012
G1 X156.239 Y115.301 E96.88938
G1 X155.628 Y117.343 E97.11958
G1 X154.787 Y118.809 E97.30211
G1 X154.17 Y119.406 E97.39483
G1 X154.168 Y119.72 E97.42875
G1 X154.96 Y120.832 E97.57619
G1 X155.533 Y123.284 E97.84814
G1 X155.535 Y127.135 E98.26405
G1 X154.791 Y129.623 E98.54451
G1 X153.083 Y131.852 E98.84779
G1 X150.99 Y133.137 E99.11304
G1 X148.578 Y133.81 E99.38348
G1 X147.998 Y133.754 E99.44641
G1 X146.772 Y134.313 E99.59194
G1 X144.385 Y133.52 E99.86359
G1 X139.611 Y133.502 E100.37918
G1 X139.447 Y133.639 E100.40226
G1 X138.142 Y134.462 E100.56889
G1 X136.354 Y135.02 E100.77118
G1 X131.297 Y135.02 E101.31733
G1 X129.269 Y134.347 E101.5481
G1 X128.637 Y133.832 E101.63615
G1 X99.914 Y133.82 E104.73823
G1 X97.776 Y133.274 E104.97655
G1 X95.986 Y131.739 E105.23122
G1 X93.825 Y132.44 E105.47658
G1 X89.734 Y132.44 E105.9184
G1 X88.121 Y132.089 E106.09669
G1 X87.319 Y131.6 E106.19813
G1 X85.568 Y132.995 E106.43992
G1 X83.359 Y133.52 E106.68514
G1 X73.838 Y133.52 E107.7134
G1 X72.225 Y133.169 E107.89168
G1 X70.72 Y132.251 E108.08208
G1 X68.932 Y130.408 E108.3594
G1 X68.085 Y127.795 E108.65606
G1 X68.086 Y94.911 E112.20753
G1 X68.882 Y92.57 E112.47457
G1 X71.182 Y90.336 E112.82086
G0 F7200 X71.395 Y90.687
G1 F1800 X73.867 Y89.88 E113.1017
G1 X83.714 Y89.88 E114.16518
G1 X85.802 Y90.564 E114.40247
G1 X87.21 Y91.89 E114.61136
G1 X87.482 Y91.701 E114.64713
G1 X89.769 Y90.96 E114.90677
G1 X94.054 Y90.96 E115.36955
G1 X96.164 Y91.677 E115.61022
G1 X96.316 Y91.491 E115.63617
G1 X98.133 Y90.061 E115.88589
G1 X100.201 Y89.575 E116.11531
G1 X128.828 Y89.584 E119.20703
G1 X129.88 Y88.909 E119.34202
G1 X131.583 Y88.38 E119.53462
G1 X136.21 Y88.38 E120.03433
G1 X137.928 Y88.81 E120.2256
G1 X139.189 Y89.612 E120.387
G1 X139.474 Y89.88 E120.42925
G1 X144.397 Y89.88 E120.96093
G1 X145.53 Y89.555 E121.08823
G1 X147.284 Y89.511 E121.27772
G1 X147.842 Y89.692 E121.34108
G1 X148.548 Y89.665 E121.41738
G1 X150.407 Y90.049 E121.62239
G1 X152.256 Y91.078 E121.85093
G1 X153.422 Y92.129 E122.02046
G1 X154.654 Y94.101 E122.27158
G1 X155.137 Y96.089 E122.49253
G1 X155.136 Y99.873 E122.90121
G1 X154.545 Y101.876 E123.12675
G1 X153.773 Y103.182 E123.2906
G1 X153.767 Y103.887 E123.36674
G1 X154.87 Y104.947 E123.53196
G1 X155.825 Y107.744 E123.85115
G1 X155.855 Y110.264 E124.12333
G1 X155.874 Y110.964 E124.19896
G1 X155.875 Y112.249 E124.33774
G1 X155.848 Y112.978 E124.41653
G1 X155.839 Y115.242 E124.66104
G1 X155.258 Y117.184 E124.87996
G1 X154.469 Y118.56 E125.05127
G1 X153.771 Y119.235 E125.15613
G1 X153.767 Y119.847 E125.22223
G1 X154.589 Y121.001 E125.37525
G1 X155.133 Y123.328 E125.63334
G1 X155.135 Y127.077 E126.03823
G1 X154.429 Y129.437 E126.30427
G1 X152.81 Y131.55 E126.59176
G1 X150.827 Y132.768 E126.8431
G1 X148.543 Y133.405 E127.09919
G1 X147.929 Y133.345 E127.16581
G1 X146.749 Y133.884 E127.30592
G1 X144.452 Y133.12 E127.56736
G1 X139.459 Y133.101 E128.10661
G1 X139.234 Y133.301 E128.13912
G1 X137.975 Y134.095 E128.29987
G1 X136.293 Y134.62 E128.49017
G1 X131.363 Y134.62 E129.02261
G1 X129.463 Y133.989 E129.23883
G1 X128.778 Y133.432 E129.33418
G1 X99.966 Y133.42 E132.44588
G1 X97.965 Y132.909 E132.66892
G1 X96.077 Y131.29 E132.93753
G1 X93.764 Y132.04 E133.20014
G1 X89.778 Y132.04 E133.63063
G1 X88.27 Y131.712 E133.7973
G1 X87.288 Y131.113 E133.92153
G1 X85.388 Y132.627 E134.18391
G1 X83.313 Y133.12 E134.41425
G1 X73.882 Y133.12 E135.43279
G1 X72.374 Y132.792 E135.59947
G1 X70.974 Y131.938 E135.77658
G1 X69.284 Y130.196 E136.0387
G1 X68.485 Y127.731 E136.31856
G1 X68.486 Y94.978 E139.85588
G1 X69.23 Y92.79 E140.10547
G1 X71.395 Y90.687 E140.43144
G0 F7200 X71.608 Y91.038
G1 F1800 X73.93 Y90.28 E140.69524
G1 X83.651 Y90.28 E141.74511
G1 X85.593 Y90.916 E141.96581
G1 X87.194 Y92.424 E142.20334
G1 X87.605 Y92.082 E142.26109
G1 X89.833 Y91.36 E142.51403
G1 X93.987 Y91.36 E142.96266
G1 X95.931 Y92.021 E143.18442
G1 X96.23 Y92.266 E143.22617
G1 X96.563 Y91.805 E143.28758
G1 X98.31 Y90.43 E143.52769
G1 X100.246 Y89.975 E143.74247
G1 X128.946 Y89.984 E146.84208
G1 X130.051 Y89.275 E146.98387
G1 X131.644 Y88.78 E147.16403
G1 X136.161 Y88.78 E147.65186
G1 X137.766 Y89.182 E147.83056
G1 X138.974 Y89.95 E147.98516
G1 X139.312 Y90.28 E148.03617
G1 X144.455 Y90.28 E148.59162
G1 X145.592 Y89.954 E148.71936
G1 X147.228 Y89.913 E148.8961
G1 X147.789 Y90.095 E148.9598
G1 X148.515 Y90.067 E149.03827
G1 X150.266 Y90.429 E149.23137
G1 X152.022 Y91.406 E149.4484
G1 X153.113 Y92.389 E149.607
G1 X154.28 Y94.257 E149.84488
G1 X154.737 Y96.138 E150.05394
G1 X154.736 Y99.814 E150.45094
G1 X154.175 Y101.716 E150.66511
G1 X153.374 Y103.071 E150.83511
G1 X153.366 Y104.055 E150.94138
G1 X154.522 Y105.167 E151.11461
G1 X155.426 Y107.814 E151.4167
G1 X155.455 Y110.275 E151.68251
G1 X155.474 Y110.964 E151.75695
G1 X155.475 Y112.234 E151.89411
G1 X155.448 Y112.963 E151.9729
G1 X155.439 Y115.183 E152.21266
G1 X154.888 Y117.025 E152.4203
G1 X154.151 Y118.311 E152.58038
G1 X153.372 Y119.064 E152.69739
G1 X153.366 Y119.974 E152.79568
G1 X154.217 Y121.168 E152.95403
G1 X154.733 Y123.376 E153.19892
G1 X154.735 Y127.019 E153.59236
G1 X154.067 Y129.253 E153.84419
G1 X152.539 Y131.247 E154.1155
G1 X150.665 Y132.398 E154.35302
G1 X148.508 Y133 E154.59488
G1 X147.86 Y132.937 E154.66519
G1 X146.726 Y133.455 E154.79984
G1 X144.519 Y132.72 E155.05106
G1 X139.302 Y132.7 E155.6145
G1 X139.021 Y132.963 E155.65607
G1 X137.808 Y133.728 E155.81095
G1 X136.232 Y134.22 E155.98926
G1 X131.429 Y134.22 E156.50798
G1 X129.658 Y133.632 E156.70952
G1 X128.921 Y133.032 E156.81216
G1 X100.018 Y133.02 E159.93368
G1 X98.154 Y132.544 E160.14145
G1 X96.468 Y131.099 E160.38127
G1 X96.205 Y130.706 E160.43234
G1 X95.928 Y130.918 E160.47001
G1 X93.7 Y131.64 E160.72295
G1 X89.822 Y131.64 E161.14178
G1 X88.419 Y131.335 E161.29684
G1 X87.173 Y130.575 E161.45447
G1 X86.954 Y130.868 E161.49397
G1 X85.208 Y132.259 E161.73507
G1 X83.267 Y132.72 E161.95053
G1 X73.926 Y132.72 E162.95935
G1 X72.523 Y132.415 E163.11442
G1 X71.228 Y131.625 E163.27825
G1 X69.636 Y129.984 E163.52517
G1 X68.885 Y127.667 E163.78822
G1 X68.886 Y95.045 E167.3114
G1 X69.578 Y93.01 E167.54354
G1 X71.608 Y91.038 E167.84919
G0 F7200 X71.821 Y91.389
G1 F1800 X73.993 Y90.68 E168.09595
G1 X83.588 Y90.68 E169.13221
G1 X85.384 Y91.268 E169.33631
G1 X86.969 Y92.762 E169.57155
G1 X87.149 Y93.024 E169.60588
G1 X87.728 Y92.463 E169.69295
G1 X89.897 Y91.76 E169.9392
G1 X93.92 Y91.76 E170.37368
G1 X95.802 Y92.4 E170.58837
G1 X96.287 Y92.898 E170.66344
G1 X96.81 Y92.119 E170.76478
G1 X98.487 Y90.799 E170.99527
G1 X100.291 Y90.375 E171.19541
G1 X129.118 Y90.384 E174.30873
G1 X129.301 Y90.232 E174.33442
G1 X130.222 Y89.641 E174.45261
G1 X131.705 Y89.18 E174.62033
G1 X136.112 Y89.18 E175.09629
G1 X137.607 Y89.554 E175.26272
G1 X138.759 Y90.287 E175.41019
G1 X139.145 Y90.68 E175.46968
G1 X144.513 Y90.68 E176.04942
G1 X145.654 Y90.353 E176.17761
G1 X147.172 Y90.315 E176.34161
G1 X147.736 Y90.498 E176.40565
G1 X148.482 Y90.469 E176.48628
G1 X150.125 Y90.809 E176.66748
G1 X151.788 Y91.734 E176.873
G1 X152.804 Y92.649 E177.02066
G1 X153.906 Y94.413 E177.2453
G1 X154.337 Y96.187 E177.44246
G1 X154.336 Y99.755 E177.82781
G1 X153.805 Y101.556 E178.03059
G1 X152.975 Y102.96 E178.20674
G1 X152.965 Y104.223 E178.34315
G1 X154.174 Y105.387 E178.5244
G1 X155.027 Y107.884 E178.80938
G1 X155.055 Y110.286 E179.06881
G1 X155.074 Y110.964 E179.14206
G1 X155.075 Y112.219 E179.2776
G1 X155.048 Y112.948 E179.35639
G1 X155.039 Y115.124 E179.5914
G1 X154.518 Y116.866 E179.78777
G1 X153.833 Y118.062 E179.93662
G1 X152.973 Y118.893 E180.06578
G1 X152.965 Y120.101 E180.19625
G1 X153.846 Y121.337 E180.36017
G1 X154.333 Y123.42 E180.5912
G1 X154.335 Y126.961 E180.97363
G1 X153.705 Y129.067 E181.21104
G1 X152.266 Y130.945 E181.46656
G1 X150.503 Y132.028 E181.69002
G1 X148.473 Y132.595 E181.91765
G1 X147.791 Y132.529 E181.99165
G1 X146.702 Y133.026 E182.12093
G1 X144.583 Y132.32 E182.36215
G1 X139.138 Y132.299 E182.95022
